X: 10081
M: 6/8
L: 1/8
Q: "Moderato"
K: Bb
V: 1 staves=3
|:\
d2e c2d | B2c d2c | B2G G2F | F3 z2z :|
|:\
d2d d2c | d2e f3  | c2c c2B | c2d e3 |\
f2d c2d | B2c d2c | B2G G2F | F3 z2z :|
V: 2
|:\
|:\
d2F E2F | D2G B2E | D2E E2D | D3 z2z :|
V: 3 clef=bass middle=d
|:\
|:\


